icons/src/svg/link_broken.svg

<svg width="32" height="32" viewBox="0 0 32 32" fill="none" xmlns="http://www.w3.org/2000/svg">
<path fill-rule="evenodd" clip-rule="evenodd" d="M6.101 6.09954C6.49153 5.70901 7.12469 5.70901 7.51522 6.09954L8.92943 7.51375C9.31996 7.90428 9.31996 8.53744 8.92943 8.92797C8.53891 9.31849 7.90574 9.31849 7.51522 8.92797L6.101 7.51375C5.71048 7.12323 5.71048 6.49006 6.101 6.09954Z" fill="#0D0F13"/>
<path fill-rule="evenodd" clip-rule="evenodd" d="M2.47768 12.3762C2.62062 11.8428 3.16896 11.5262 3.70243 11.6691L5.63428 12.1868C6.16774 12.3297 6.48433 12.878 6.34138 13.4115C6.19844 13.945 5.65011 14.2616 5.11664 14.1186L3.18479 13.601C2.65132 13.458 2.33474 12.9097 2.47768 12.3762Z" fill="#0D0F13"/>
<path fill-rule="evenodd" clip-rule="evenodd" d="M12.3762 2.47768C11.8427 2.62062 11.5261 3.16895 11.6691 3.70242L12.1867 5.63427C12.3297 6.16774 12.878 6.48432 13.4115 6.34138C13.9449 6.19844 14.2615 5.6501 14.1186 5.11663L13.6009 3.18478C13.458 2.65132 12.9096 2.33473 12.3762 2.47768Z" fill="#0D0F13"/>
<path fill-rule="evenodd" clip-rule="evenodd" d="M25.8997 25.8987C25.5091 26.2892 24.876 26.2892 24.4854 25.8987L23.0712 24.4844C22.6807 24.0939 22.6807 23.4608 23.0712 23.0702C23.4618 22.6797 24.0949 22.6797 24.4854 23.0702L25.8997 24.4844C26.2902 24.875 26.2902 25.5081 25.8997 25.8987Z" fill="#0D0F13"/>
<path fill-rule="evenodd" clip-rule="evenodd" d="M29.5225 19.6244C29.3796 20.1578 28.8313 20.4744 28.2978 20.3315L26.3659 19.8138C25.8325 19.6709 25.5159 19.1226 25.6588 18.5891C25.8018 18.0556 26.3501 17.7391 26.8836 17.882L28.8154 18.3996C29.3489 18.5426 29.6655 19.0909 29.5225 19.6244Z" fill="#0D0F13"/>
<path fill-rule="evenodd" clip-rule="evenodd" d="M19.6243 29.523C20.1578 29.3801 20.4744 28.8317 20.3314 28.2983L19.8138 26.3664C19.6709 25.833 19.1225 25.5164 18.5891 25.6593C18.0556 25.8023 17.739 26.3506 17.882 26.8841L18.3996 28.8159C18.5425 29.3494 19.0909 29.666 19.6243 29.523Z" fill="#0D0F13"/>
<path fill-rule="evenodd" clip-rule="evenodd" d="M14.5863 10.3438C14.1958 9.95322 14.1958 9.32006 14.5863 8.92953L17.4148 6.1011C19.7579 3.75797 23.5569 3.75797 25.9 6.1011C28.2432 8.44425 28.2432 12.2433 25.9 14.5864L23.0716 17.4149C22.6811 17.8054 22.0479 17.8054 21.6574 17.4149C21.2669 17.0243 21.2669 16.3912 21.6574 16.0006L24.4858 13.1722C26.0479 11.6101 26.0479 9.07742 24.4858 7.51533C22.9237 5.95323 20.3911 5.95323 18.829 7.51533L16.0005 10.3438C15.61 10.7343 14.9768 10.7343 14.5863 10.3438Z" fill="#0D0F13"/>
<path fill-rule="evenodd" clip-rule="evenodd" d="M17.4143 21.6569C17.8048 22.0475 17.8048 22.6806 17.4143 23.0711L14.5859 25.8996C12.2427 28.2427 8.44377 28.2427 6.10062 25.8996C3.75748 23.5564 3.75748 19.7574 6.10062 17.4143L8.92905 14.5859C9.31957 14.1953 9.95274 14.1953 10.3432 14.5859C10.7338 14.9764 10.7338 15.6096 10.3432 16.0001L7.51484 18.8285C5.95274 20.3906 5.95274 22.9233 7.51484 24.4854C9.07693 26.0475 11.6096 26.0475 13.1717 24.4854L16.0001 21.6569C16.3906 21.2664 17.0238 21.2664 17.4143 21.6569Z" fill="#0D0F13"/>
</svg>

<svg fill="none" xmlns="http://www.w3.org/2000/svg" viewBox="0 0 32 32">
  <path fill-rule="evenodd" clip-rule="evenodd" d="M6.1 6.1a1 1 0 0 1 1.415 0l1.414 1.415a1 1 0 1 1-1.414 1.414L6.101 7.515a1 1 0 0 1 0-1.415ZM2.478 12.376a1 1 0 0 1 1.224-.707l1.932.517a1 1 0 1 1-.517 1.932L3.185 13.6a1 1 0 0 1-.707-1.224ZM12.376 2.477a1 1 0 0 0-.707 1.225l.518 1.932a1 1 0 0 0 1.931-.518l-.517-1.932a1 1 0 0 0-1.225-.707ZM25.9 25.9a1 1 0 0 1-1.415 0l-1.414-1.415a1 1 0 0 1 1.414-1.414l1.415 1.414a1 1 0 0 1 0 1.414ZM29.523 19.624a1 1 0 0 1-1.225.707l-1.932-.518a1 1 0 1 1 .518-1.931l1.931.517a1 1 0 0 1 .707 1.225ZM19.624 29.522a1 1 0 0 0 .707-1.224l-.517-1.932a1 1 0 0 0-1.932.518l.517 1.931a1 1 0 0 0 1.225.707ZM14.586 10.343a1 1 0 0 1 0-1.414L17.415 6.1a6 6 0 1 1 8.485 8.486l-2.829 2.828A1 1 0 0 1 21.657 16l2.829-2.829a4 4 0 0 0-5.657-5.656L16 10.343a1 1 0 0 1-1.414 0ZM17.414 21.657a1 1 0 0 1 0 1.414l-2.828 2.828A6 6 0 0 1 6.1 17.414l2.829-2.829A1 1 0 1 1 10.343 16l-2.828 2.828a4 4 0 0 0 5.657 5.657L16 21.657a1 1 0 0 1 1.414 0Z" fill="currentColor"/>
</svg>
